X:1
T:D minor Daniel Read, 1785
T:Isaac Watts, 1719 (Hymn 28, Book 2  86. 86. (C .M.)
T:Warren
T:No copyright. Transcribed from The American Singing-Book, 1786.
%%score [ 1 2 3 4 ]
L:1/8
M:none
K:F
V:1 treble nm="Treble" snm="Tr."
V:2 treble nm="Counter" snm="C."
V:3 treble-8 nm="Tenor" snm="T."
V:4 bass nm="Bass" snm="B."
V:1
 A8 | A2 B2 c4 | d4 (A4 | B2) B2 A4 | z2 B2 c2 c2 | d4 c4 | d8 | d4 A2 A2 | A6 B2 | (A3 B) c2 d2 | %10
w: 1.~Stoop|down my thoughts,|that use|* to rise,|Con- verse a-|while with|death;|Think how a|gasp- ing|mor- * * tal|
w: 2.~Up|to the courts|where an-|* gels dwell,|It mounts tr-|umph- ant|there,|Or dev- ils|plunge it|down * * to|
w: 3.~And|must my bo-|dy faint|* and die?|And must this|soul re-|move?|O for some|guard- ian|an- * * gel|
w: 4.~Je-|sus to Thy|dear faith-|* ful hand|My nak- ed|soul I|trust,|And my flesh|waits for|Thy * * com-|
 c4 d4 | A8 | A4 (A3 G) | F2 B2 A4 | A8 | A8 |] %16
w: lies, and|pants,|and pants *|* a- way|his|breath.|
w: hell, in-|fi-|nite, in- *|* fin- ite|des-|pair.|
w: nigh, to|bear,|to bear *|* it safe|a-|bove!|
w: mand To|drop,|to drop *|* in- to|my|dust.|
V:2
 [Ad]8 | A2 G2 F4 | F4 (D2 F2) | E2 E2 F4 | z2 G2 A2 B2 | A4 (G3 B) | A8 | F4 F2 F2 | F6 G2 | %9
 (A2 G2) F2 (GF) | E4 F4 | (F3 G) A2 A2 | (F3 E) D4 | D4 E4 | E8 | [DF]8 |] %16
V:3
 d8 | c2 B2 A4 | d4 (f2 d>)f | ed c2 d4 | z2 B2 A2 G2 | F4 G4 | A8 | A4 d2 A2 | (d3 e) f2 e2 | %9
 (d4 A2) B2 | A4 A4 | (D3 E) F3 G | A3 B A4 | (d2 e)f (e3 d) | c8 | d8 |] %16
V:4
 D,8 | F,2 E,2 F,4 | D,4 (D,4 | G,2) A,2 D,4 | z2 E,2 F,2 E,2 | D,4 E,4 | D,8 | D,4 D,2 D,2 | %8
 D,6 E,2 | (F,2 G,2) A,2 G,2 | A,4 D,4 | (F,3 E,) D,4 | D,4 F,4 | D,4 A,4 | A,,8 | D,8 |] %16

